dist/img/icons/icon.svg

<svg width="35" height="47" viewBox="0 0 35 47" fill="none" xmlns="http://www.w3.org/2000/svg">
<g clip-path="url(#clip0)">
<path d="M10.5652 10.6023C10.6219 10.2196 10.9287 9.91278 11.3115 9.85611C12.6844 9.65288 13.3239 9.28053 13.3239 8.68423C13.3239 7.95846 12.3423 7.69527 11.6039 7.56054C11.3256 7.50961 11.0583 7.69418 11.0074 7.97281C10.9566 8.25131 11.1411 8.51832 11.4197 8.56925C11.6282 8.60732 11.7928 8.64677 11.9221 8.68409C11.7379 8.73728 11.489 8.79333 11.1612 8.84187C10.3352 8.96416 9.67305 9.62642 9.55083 10.4522C9.50236 10.7797 9.44637 11.0285 9.39312 11.2128C9.34001 11.0285 9.28395 10.7797 9.23548 10.4523C9.11319 9.62643 8.45092 8.96416 7.62501 8.84187C7.29777 8.7934 7.04908 8.73748 6.86492 8.6843C7.04908 8.63118 7.29777 8.57513 7.62501 8.52666C8.45092 8.40443 9.11319 7.74224 9.23548 6.91639C9.28395 6.58922 9.33987 6.34066 9.39305 6.1565C9.43421 6.29883 9.47707 6.47978 9.51692 6.70632C9.56587 6.98516 9.83206 7.17185 10.1106 7.12263C10.3894 7.07368 10.5759 6.8079 10.5269 6.52899C10.3932 5.76699 10.13 4.75391 9.39319 4.75391C8.79689 4.75391 8.42454 5.39334 8.22124 6.7662C8.16457 7.14888 7.8577 7.45567 7.47496 7.51234C6.10196 7.71571 5.46252 8.08807 5.46252 8.6843C5.46252 9.28053 6.10196 9.65288 7.47489 9.85618C7.85763 9.91285 8.16457 10.2197 8.22124 10.6025C8.42454 11.9757 8.79689 12.6153 9.39319 12.6153C9.98956 12.6152 10.3619 11.9757 10.5652 10.6023Z" fill="black"/>
<path d="M33.1556 14.2294C32.8374 14.1823 32.5822 13.9271 32.5351 13.6089C32.4178 12.8172 32.176 11.7646 31.434 11.7646C30.6919 11.7646 30.4502 12.8172 30.333 13.6089C30.2859 13.9271 30.0307 14.1823 29.7124 14.2294C28.9206 14.3467 27.868 14.5883 27.868 15.3303C27.868 16.0725 28.9206 16.3142 29.7124 16.4313C30.0307 16.4784 30.2859 16.7336 30.333 17.0518C30.4502 17.8438 30.6919 18.8967 31.434 18.8967C32.1761 18.8967 32.4179 17.8438 32.5351 17.0518C32.5822 16.7336 32.8374 16.4784 33.1556 16.4313C33.9474 16.3141 35 16.0725 35 15.3303C35 14.5883 33.9474 14.3467 33.1556 14.2294ZM33.0054 15.417C32.2439 15.5297 31.6334 16.1403 31.5207 16.9017C31.4936 17.0846 31.4639 17.2396 31.4339 17.3697C31.4039 17.2397 31.3743 17.0847 31.3471 16.9018C31.2345 16.1403 30.6239 15.5298 29.8623 15.417C29.6796 15.39 29.5248 15.3603 29.3948 15.3303C29.5248 15.3004 29.6796 15.2707 29.8624 15.2437C30.6238 15.1309 31.2343 14.5204 31.3471 13.759C31.3742 13.5762 31.4039 13.4213 31.4339 13.2912C31.4638 13.4212 31.4935 13.5761 31.5207 13.759C31.6333 14.5204 32.2439 15.1309 33.0054 15.2437C33.1881 15.2707 33.3429 15.3004 33.473 15.3303C33.343 15.3603 33.1882 15.39 33.0054 15.417Z" fill="black"/>
<path d="M25.2451 3.60398C25.0294 3.57198 24.8564 3.3991 24.8246 3.1835C24.7243 2.50647 24.5127 1.60645 23.8363 1.60645C23.1599 1.60645 22.9484 2.50647 22.8481 3.18356C22.8162 3.3991 22.6432 3.57205 22.4276 3.60398C21.7505 3.70419 20.8503 3.91569 20.8503 4.59211C20.8503 5.26853 21.7505 5.48003 22.4276 5.58031C22.6433 5.61224 22.8162 5.78519 22.8481 6.00086C22.9484 6.67803 23.1599 7.57832 23.8363 7.57832C24.5128 7.57832 24.7243 6.67803 24.8246 6.00079C24.8565 5.78519 25.0294 5.61217 25.2452 5.58031C25.9222 5.48003 26.8223 5.26846 26.8223 4.59211C26.8223 3.91563 25.9221 3.70419 25.2451 3.60398ZM23.8362 5.7169C23.7024 5.16524 23.2632 4.72609 22.7117 4.59211C23.2633 4.45806 23.7024 4.01892 23.8363 3.46746C23.9701 4.01898 24.4093 4.45806 24.9609 4.59211C24.4093 4.72616 23.9701 5.1653 23.8362 5.7169Z" fill="black"/>
<path d="M5.56642 17.8604C5.42259 17.839 5.30713 17.7237 5.28587 17.5799C5.22961 17.1997 5.08018 16.1899 4.37669 16.1899C3.67334 16.1899 3.5237 17.1997 3.46744 17.5798C3.44611 17.7237 3.33079 17.839 3.18689 17.8604C2.80668 17.9166 1.79688 18.0662 1.79688 18.7696C1.79688 19.4729 2.80661 19.6225 3.18683 19.6787C3.33072 19.7001 3.44611 19.8154 3.46737 19.9593C3.52363 20.3396 3.6732 21.3496 4.37662 21.3496C5.08011 21.3496 5.22961 20.3395 5.2858 19.9592C5.30713 19.8154 5.42245 19.7001 5.56635 19.6787C5.94656 19.6225 6.95637 19.4729 6.95637 18.7696C6.95637 18.0662 5.94656 17.9166 5.56642 17.8604ZM4.37662 19.4525C4.23983 19.1508 3.99538 18.9063 3.69371 18.7696C3.99531 18.6328 4.23983 18.3882 4.37662 18.0866C4.51341 18.3882 4.75793 18.6328 5.05953 18.7696C4.75793 18.9063 4.51334 19.1508 4.37662 19.4525Z" fill="black"/>
<path d="M17.4412 13.6377C18.3082 13.6377 19.0134 12.9324 19.0134 12.0654C19.0134 11.1984 18.3082 10.4932 17.4412 10.4932C16.5742 10.4932 15.8689 11.1984 15.8689 12.0654C15.8689 12.9324 16.5742 13.6377 17.4412 13.6377ZM17.4412 11.5186C17.7427 11.5186 17.988 11.7639 17.988 12.0654C17.988 12.367 17.7427 12.6123 17.4412 12.6123C17.1396 12.6123 16.8943 12.367 16.8943 12.0654C16.8943 11.7639 17.1396 11.5186 17.4412 11.5186Z" fill="black"/>
<path d="M31.7363 3.14453C32.6033 3.14453 33.3086 2.43927 33.3086 1.57227C33.3086 0.705264 32.6033 0 31.7363 0C30.8693 0 30.1641 0.705264 30.1641 1.57227C30.1641 2.43927 30.8693 3.14453 31.7363 3.14453ZM31.7363 1.02539C32.0379 1.02539 32.2832 1.27073 32.2832 1.57227C32.2832 1.8738 32.0379 2.11914 31.7363 2.11914C31.4348 2.11914 31.1895 1.8738 31.1895 1.57227C31.1895 1.27073 31.4348 1.02539 31.7363 1.02539Z" fill="black"/>
<path d="M3.14453 3.24219C3.14453 2.37519 2.43927 1.66992 1.57227 1.66992C0.705264 1.66992 0 2.37519 0 3.24219C0 4.10919 0.705264 4.81445 1.57227 4.81445C2.43927 4.81445 3.14453 4.10912 3.14453 3.24219ZM1.57227 3.78906C1.27073 3.78906 1.02539 3.54372 1.02539 3.24219C1.02539 2.94065 1.27073 2.69531 1.57227 2.69531C1.8738 2.69531 2.11914 2.94065 2.11914 3.24219C2.11914 3.54372 1.8738 3.78906 1.57227 3.78906Z" fill="black"/>
</g>
<g clip-path="url(#clip1)">
<path d="M24.3565 20.0056C21.4606 18.4982 18.1511 18.2088 15.0375 19.1906C11.924 20.1724 9.3791 22.3079 7.87172 25.2037C6.36439 28.0995 6.07493 31.4091 7.05673 34.5226C8.03852 37.6362 10.1741 40.1811 13.0699 41.6885C15.9657 43.1958 19.2752 43.4853 22.3888 42.5035C25.5023 41.5217 28.0472 39.3862 29.5546 36.4903C31.0619 33.5945 31.3514 30.2849 30.3696 27.1714C29.3878 24.0579 27.2523 21.513 24.3565 20.0056ZM21.958 41.1375C16.2839 42.9267 10.212 39.7661 8.42272 34.0919C6.63348 28.4177 9.7941 22.3458 15.4683 20.5566C21.1425 18.7673 27.2144 21.928 29.0036 27.6021C30.7928 33.2763 27.6322 39.3482 21.958 41.1375Z" fill="black"/>
<path d="M19.2293 29.9335L17.7662 30.3949C16.9326 30.6577 16.0406 30.1934 15.7778 29.3599C15.5149 28.5263 15.9793 27.6344 16.8128 27.3715L19.7391 26.4488C20.1163 26.3299 20.3256 25.9276 20.2067 25.5504C20.0878 25.1732 19.6855 24.9639 19.3083 25.0828L17.7966 25.5595L17.32 24.0478C17.201 23.6706 16.7988 23.4612 16.4216 23.5802C16.0444 23.6991 15.835 24.1013 15.954 24.4785L16.4306 25.9902L16.3821 26.0055C14.7953 26.5059 13.9115 28.2039 14.4118 29.7906C14.9122 31.3774 16.6102 32.2612 18.1969 31.7609L19.6601 31.2995C20.4936 31.0366 21.3856 31.501 21.6484 32.3345C21.9113 33.168 21.447 34.06 20.6135 34.3229L17.6872 35.2456C17.31 35.3645 17.1006 35.7668 17.2196 36.144C17.3385 36.5212 17.7407 36.7305 18.1179 36.6116L19.6296 36.1349L20.1063 37.6467C20.2252 38.0239 20.6274 38.2332 21.0046 38.1143C21.3818 37.9954 21.5912 37.5931 21.4723 37.2159L20.9956 35.7042L21.0441 35.6889C22.6309 35.1885 23.5147 33.4905 23.0144 31.9038C22.514 30.317 20.816 29.4332 19.2293 29.9335Z" fill="black"/>
</g>
<defs>
<clipPath id="clip0">
<rect width="35" height="35" fill="white"/>
</clipPath>
<clipPath id="clip1">
<rect width="24.4444" height="24.4444" fill="white" transform="translate(3.3811 22.8662) rotate(-17.5016)"/>
</clipPath>
</defs>
</svg>

<svg width="35" height="47" viewBox="0 0 35 47" fill="none" xmlns="http://www.w3.org/2000/svg"><g clip-path="url(#a)" fill="#000"><path d="M10.565 10.602a.892.892 0 0 1 .747-.746c1.372-.203 2.012-.575 2.012-1.172 0-.726-.982-.989-1.72-1.123a.513.513 0 0 0-.184 1.008c.208.038.373.078.502.115a5.87 5.87 0 0 1-.76.158 1.924 1.924 0 0 0-1.611 1.61 5.857 5.857 0 0 1-.158.76 5.885 5.885 0 0 1-.158-.76 1.924 1.924 0 0 0-1.61-1.61 5.867 5.867 0 0 1-.76-.158c.184-.053.433-.109.76-.157a1.924 1.924 0 0 0 1.61-1.61c.049-.328.105-.576.158-.76.041.142.084.323.124.55a.513.513 0 0 0 1.01-.178c-.134-.762-.397-1.775-1.134-1.775-.596 0-.968.64-1.172 2.012a.892.892 0 0 1-.746.746c-1.373.204-2.012.576-2.012 1.172 0 .597.639.969 2.012 1.172.383.057.69.364.746.746.204 1.374.576 2.013 1.172 2.013.597 0 .969-.64 1.172-2.013zM33.156 14.23a.741.741 0 0 1-.62-.621c-.118-.792-.36-1.844-1.102-1.844-.742 0-.984 1.052-1.101 1.844a.741.741 0 0 1-.62.62c-.792.118-1.845.36-1.845 1.101 0 .743 1.053.984 1.844 1.101a.741.741 0 0 1 .621.62c.117.793.359 1.846 1.101 1.846s.984-1.053 1.101-1.845a.741.741 0 0 1 .62-.62c.792-.118 1.845-.36 1.845-1.102 0-.742-1.053-.983-1.844-1.1zm-.15 1.187a1.774 1.774 0 0 0-1.485 1.485 6.014 6.014 0 0 1-.087.468 6.05 6.05 0 0 1-.087-.468 1.774 1.774 0 0 0-1.485-1.485 5.963 5.963 0 0 1-.467-.087c.13-.03.285-.06.467-.086a1.774 1.774 0 0 0 1.485-1.485c.027-.183.057-.338.087-.468.03.13.06.285.087.468a1.774 1.774 0 0 0 1.484 1.485c.183.027.338.056.468.086-.13.03-.285.06-.468.087zM25.245 3.604a.502.502 0 0 1-.42-.42c-.1-.678-.312-1.578-.989-1.578-.676 0-.888.9-.988 1.578a.502.502 0 0 1-.42.42c-.678.1-1.578.312-1.578.988 0 .677.9.888 1.578.988a.502.502 0 0 1 .42.42c.1.678.312 1.578.988 1.578.677 0 .888-.9.989-1.577a.502.502 0 0 1 .42-.42c.677-.101 1.577-.313 1.577-.989 0-.676-.9-.888-1.577-.988zm-1.409 2.113a1.538 1.538 0 0 0-1.124-1.125c.551-.134.99-.573 1.124-1.125.134.552.573.991 1.125 1.125-.552.134-.99.573-1.125 1.125zM5.566 17.86a.335.335 0 0 1-.28-.28c-.056-.38-.206-1.39-.91-1.39-.703 0-.852 1.01-.909 1.39a.335.335 0 0 1-.28.28c-.38.057-1.39.206-1.39.91 0 .703 1.01.852 1.39.909.144.021.26.136.28.28.057.38.206 1.39.91 1.39.703 0 .853-1.01.909-1.39a.335.335 0 0 1 .28-.28c.38-.056 1.39-.206 1.39-.91 0-.703-1.01-.852-1.39-.909zm-1.19 1.593a1.377 1.377 0 0 0-.682-.683c.301-.137.546-.382.683-.683.136.301.38.546.683.683a1.377 1.377 0 0 0-.683.683zM17.441 13.638c.867 0 1.572-.706 1.572-1.573s-.705-1.572-1.572-1.572c-.867 0-1.572.705-1.572 1.572 0 .867.705 1.573 1.572 1.573zm0-2.12a.547.547 0 1 1-.001 1.095.547.547 0 0 1 .001-1.094zM31.736 3.145c.867 0 1.573-.706 1.573-1.573S32.603 0 31.736 0s-1.572.705-1.572 1.572c0 .867.705 1.573 1.572 1.573zm0-2.12a.547.547 0 1 1 0 1.095.547.547 0 0 1 0-1.095zM3.145 3.242c0-.867-.706-1.572-1.573-1.572S0 2.375 0 3.242c0 .867.705 1.572 1.572 1.572.867 0 1.573-.705 1.573-1.572zm-1.573.547a.548.548 0 1 1 .002-1.095.548.548 0 0 1-.002 1.095z"/></g><g clip-path="url(#b)" fill="#000"><path d="M24.357 20.006a12.142 12.142 0 0 0-9.32-.815 12.142 12.142 0 0 0-7.165 6.013 12.142 12.142 0 0 0-.815 9.319 12.143 12.143 0 0 0 6.013 7.165 12.142 12.142 0 0 0 9.319.816 12.142 12.142 0 0 0 7.166-6.014 12.142 12.142 0 0 0 .815-9.319 12.143 12.143 0 0 0-6.014-7.165zm-2.399 21.132c-5.674 1.789-11.746-1.372-13.535-7.046-1.79-5.674 1.371-11.746 7.045-13.535 5.674-1.79 11.746 1.371 13.536 7.045 1.789 5.674-1.372 11.746-7.046 13.536z"/><path d="M19.23 29.933l-1.464.462a1.587 1.587 0 0 1-1.988-1.035 1.587 1.587 0 0 1 1.035-1.988l2.926-.923a.716.716 0 0 0-.43-1.366l-1.512.477-.477-1.512a.716.716 0 0 0-1.366.43l.477 1.512-.049.016a3.02 3.02 0 0 0-1.97 3.785 3.02 3.02 0 0 0 3.785 1.97l1.463-.462a1.587 1.587 0 0 1 1.988 1.035 1.587 1.587 0 0 1-1.035 1.989l-2.926.923a.716.716 0 0 0 .43 1.366l1.513-.477.476 1.512a.716.716 0 1 0 1.366-.431l-.476-1.512.048-.015a3.02 3.02 0 0 0 1.97-3.785 3.02 3.02 0 0 0-3.785-1.97z"/></g><defs><clipPath id="a"><path fill="#fff" d="M0 0h35v35H0z"/></clipPath><clipPath id="b"><path fill="#fff" transform="rotate(-17.502 75.966 .45)" d="M0 0h24.444v24.444H0z"/></clipPath></defs></svg>
